assets/icons/qvision/drive_file_move_outline.svg

<svg xmlns="http://www.w3.org/2000/svg" height="24" viewBox="0 0 24 24" width="24"><path d="M0 0h24v24H0z" fill="none"/><path d="M20 6h-8l-2-2H4c-1.1 0-1.99.9-1.99 2L2 18c0 1.1.9 2 2 2h16c1.1 0 2-.9 2-2V8c0-1.1-.9-2-2-2zm0 12H4V8h16v10zm-8.01-9l-1.41 1.41L12.16 12H8v2h4.16l-1.59 1.59L11.99 17 16 13.01 11.99 9z"/></svg>

<svg width="24" height="24" viewBox="0 0 24 24" fill="none" xmlns="http://www.w3.org/2000/svg">
<g clip-path="url(#clip0_147_2853)">
<path d="M20 6H12L10 4H4C2.9 4 2.01 4.9 2.01 6L2 18C2 19.1 2.9 20 4 20H20C21.1 20 22 19.1 22 18V8C22 6.9 21.1 6 20 6ZM20 18H4V8H20V18ZM11.99 9L10.58 10.41L12.16 12H8V14H12.16L10.57 15.59L11.99 17L16 13.01L11.99 9Z" fill="#323232"/>
</g>
<defs>
<clipPath id="clip0_147_2853">
<rect width="24" height="24" fill="white"/>
</clipPath>
</defs>
</svg>
